X: 19319
T: Jack Gilder's Beard
R: barndance
M: 4/4
K: Dmajor
|:d2 f>d A>F D2|B2 G>F G2 G2|c2 e>c B>A F2|d2 f>d A2 F2|
d2 f>d A>F D2|B2 G>F G2 G2|c2 e>c B>AF>A|d2 d2 d4:|
|:f>d A2 D2 f2|g>d B2 G2 g2|e>Af>A g>Ac>e|f>dA>F D>FA>d|
f>d A2 D2 f2|g>d B2 G2 g2|a>fg>e f>de>c|(3ded d2 d4:|

